icon/fa/magnifying-glass-arrow-right.svg

<svg xmlns="http://www.w3.org/2000/svg" viewBox="0 0 512 512"><!--! Font Awesome Free 6.1.2 by @fontawesome - https://fontawesome.com License - https://fontawesome.com/license/free (Icons: CC BY 4.0, Fonts: SIL OFL 1.1, Code: MIT License) Copyright 2022 Fonticons, Inc.--><path d="M416 208c0 45.9-14.9 88.3-40.9 122.7l127.5 126.7c12.5 12.5 12.5 32.7 0 45.2s-32.7 12.5-45.2 0L330.7 375.1c-34.4 26-76.8 40.9-122.7 40.9C93.12 416 0 322.9 0 208 0 93.12 93.12 0 208 0c114.9 0 208 93.12 208 208zm-175.9-89c-8.5-9.3-23.7-9.3-33.1 0-9.3 9.4-9.3 24.6 0 33.1l31.1 31.9H120c-13.3 0-24 10.7-24 24s10.7 24 24 24h118.1L207 263c-9.3 9.4-9.3 24.6 0 33.1 9.4 10.2 24.6 10.2 33.1 0l72-72c10.2-8.5 10.2-23.7 0-33.1l-72-72z"/></svg>

<svg xmlns="http://www.w3.org/2000/svg" viewBox="0 0 512 512" height="1em" width="1em">
<!--! Font Awesome Free 6.1.2 by @fontawesome - https://fontawesome.com License - https://fontawesome.com/license/free (Icons: CC BY 4.0, Fonts: SIL OFL 1.1, Code: MIT License) Copyright 2022 Fonticons, Inc.-->
  <path d="M416 208C416 253.9 401.1 296.3 375.1 330.7L502.6 457.4C515.1 469.9 515.1 490.1 502.6 502.6C490.1 515.1 469.9 515.1 457.4 502.6L330.7 375.1C296.3 401.1 253.9 416 208 416C93.12 416 0 322.9 0 208C0 93.12 93.12 0 208 0C322.9 0 416 93.12 416 208zM240.1 119C231.6 109.7 216.4 109.7 207 119C197.7 128.4 197.7 143.6 207 152.1L238.1 184H120C106.7 184 96 194.7 96 208C96 221.3 106.7 232 120 232H238.1L207 263C197.7 272.4 197.7 287.6 207 296.1C216.4 306.3 231.6 306.3 240.1 296.1L312.1 224.1C322.3 215.6 322.3 200.4 312.1 191L240.1 119z"/>
</svg>
